X:218
T: ES RITT EIN RITTER SEHR WOHLGEMUTH
N: E0110I
O: Europa, Mitteleuropa, Deutschland, Altmark
R: erzaehlendes Volks - Lied, Sage, Liebe, Leid, Tod
M: 4/4
L: 1/8
K: G
D2 | G2D2B2AG | FAABA2
DF | A2AAd2cA | BGG2G2
BG | E2EEG2FE | E2D2D2
c2 | B2cAG2F2 | AGG2G2

